assets/img/icons/ui/unlocked.svg

<?xml version="1.0" encoding="utf-8"?>
<!-- Generated by IcoMoon.io -->
<!DOCTYPE svg PUBLIC "-//W3C//DTD SVG 1.1//EN" "http://www.w3.org/Graphics/SVG/1.1/DTD/svg11.dtd">
<svg version="1.1" xmlns="http://www.w3.org/2000/svg" xmlns:xlink="http://www.w3.org/1999/xlink" width="32" height="32" viewBox="0 0 32 32">
<path fill="rgb(0, 0, 0)" d="M22 14h-20c-1.1 0-2 0.9-2 2v14c0 1.1 0.9 2 2 2h20c1.1 0 2-0.9 2-2v-14c0-1.1-0.9-2-2-2zM22 30h-20v-14h20v14zM24 0c-4.418 0-7.999 3.582-7.999 8l-0.001 6h2v-6c0-3.312 2.686-6 5.999-6s6 2.688 6 6h0.001v2h-2v-2c0-2.209-1.791-4-4-4s-4 1.791-4 4v6h2v-6c0-1.104 0.896-2 2-2s2.001 0.896 2.001 2v4h5.999v-4c0-4.418-3.582-8-8-8zM14 22v-2h-2v-2h-2v10h2v-2h2v-2h-2v-2z"></path>
</svg>

<svg xmlns="http://www.w3.org/2000/svg" width="32" height="32" viewBox="0 0 32 32"><path d="M22 14H2c-1.1 0-2 .9-2 2v14c0 1.1.9 2 2 2h20c1.1 0 2-.9 2-2V16c0-1.1-.9-2-2-2zm0 16H2V16h20v14zm2-30a8 8 0 0 0-7.999 8L16 14h2V8a6 6 0 0 1 11.999 0H30v2h-2V8a4 4 0 0 0-8 0v6h2V8a2 2 0 0 1 4.001 0v4H32V8a8 8 0 0 0-8-8zM14 22v-2h-2v-2h-2v10h2v-2h2v-2h-2v-2z"/></svg>
